X: 1
T: Larkin's Beehive
M: 4/4
L: 1/8
R: reel
K: Gmaj
|:~B3 d edge|dGBG AGEG|~B3 d edge|dBAd BG~G2|
~B3 d edge|dGBG AGEG|~B2GB ABGB|dBAd BG~G2:|
|:BABd eg~g2|ea~a2 gedB|GBdB eBdB|~A2BG AGEG|
~B3d eg~g2|ezab gedc|BDGB A{B}AGB|dBAd BG~G2:|
